!!!COM: Robert Schumann
!!!CNT: Deutsch
!!!TXO: Deutsch
!!!OTL: Anfangs wollt' ich fast verzagen
!!!LYR: Heine
!!!OPR: Liederkreis
!!!OPS: Op.24
!!!ONM: No. 8
!!!ENC: Ben Fuhrman
!!!YOR: Schumann Lieder - Max Friedlaender, ed.,
!!!YOR: New York: C. F. Peters, Vol. 1
!!!ODT: 1840/
!!NB: Vocal melody and text only encoded.
!!NB: First instance of melodic material only encoded.
**kern	**silbe
*clefG2	*
*k[f#c#]	*
*M4/4	*
!!created: 6/7/06 9:34
!!proofed and posted: 6/7/06 9:34
!!edit time: 9 minutes
=3	=3
{4b	{An-
4cc#	-fangs
4dd	wollt'
4cc#	ich
=4	=4
4.b	fast
8cc#	ver-
4a#	-za-
4f#}	-gen,}
=5	=5
{4b	{und
4b	ich
4.b	glaubt',
8b	ich
=6	=6
4dd	tru2g'
4cc#	es
2b}	nie,}
=7	=7
{4.b	{und
8cc#	ich
4dd	hab'
4cc#	es
=8	=8
4.b	doch
8cc#	ge-
4a	-tra-
4a}	-gen,}
=9	=9
{4.a	{a-
8a	-ber
4a	fragt
4a	mich
=10	=10
4g	nur
4e}	nicht:}
{2f#	{wie?
=11	=11
4r	.
4g	nicht:
2f#}	wie?}
==	==
*-	*-
